Numix-Light/16/status/indicator-keyboard-Pa-2.svg

<?xml version="1.0" encoding="UTF-8" standalone="no"?>
<svg
   xmlns:dc="http://purl.org/dc/elements/1.1/"
   xmlns:cc="http://creativecommons.org/ns#"
   xmlns:rdf="http://www.w3.org/1999/02/22-rdf-syntax-ns#"
   xmlns:svg="http://www.w3.org/2000/svg"
   xmlns="http://www.w3.org/2000/svg"
   xmlns:sodipodi="http://sodipodi.sourceforge.net/DTD/sodipodi-0.dtd"
   xmlns:inkscape="http://www.inkscape.org/namespaces/inkscape"
   viewBox="0 0 16 16"
   id="svg2"
   version="1.1"
   inkscape:version="0.91 r13725"
   sodipodi:docname="indicator-keyboard-Pa-2.svg">
  <metadata
     id="metadata14">
    <rdf:RDF>
      <cc:Work
         rdf:about="">
        <dc:format>image/svg+xml</dc:format>
        <dc:type
           rdf:resource="http://purl.org/dc/dcmitype/StillImage" />
      </cc:Work>
    </rdf:RDF>
  </metadata>
  <defs
     id="defs12" />
  <sodipodi:namedview
     pagecolor="#ffffff"
     bordercolor="#666666"
     borderopacity="1"
     objecttolerance="10"
     gridtolerance="10"
     guidetolerance="10"
     inkscape:pageopacity="0"
     inkscape:pageshadow="2"
     inkscape:window-width="640"
     inkscape:window-height="480"
     id="namedview10"
     showgrid="false"
     inkscape:zoom="14.75"
     inkscape:cx="8"
     inkscape:cy="8"
     inkscape:window-x="65"
     inkscape:window-y="24"
     inkscape:window-maximized="0"
     inkscape:current-layer="svg2" />
  <path
     style="fill:#353535;fill-opacity:1"
     d="M 1.5996094 0 C 0.71320937 2.9605947e-16 0 0.71320937 0 1.5996094 L 0 14.400391 C 2.9605947e-16 15.286791 0.71320937 16 1.5996094 16 L 14.400391 16 C 15.286791 16 16 15.286791 16 14.400391 L 16 1.5996094 C 16 0.71320937 15.286791 0 14.400391 0 L 1.5996094 0 z M 3.6542969 4.8046875 C 4.5362969 4.8046875 5.193 4.9725937 5.625 5.3085938 C 6.057 5.6445937 6.2734375 6.1222344 6.2734375 6.7402344 C 6.2734375 7.0942344 6.2099844 7.3964375 6.0839844 7.6484375 C 5.9579844 7.8944375 5.7789219 8.0959531 5.5449219 8.2519531 C 5.3109219 8.4019531 5.0216875 8.5139375 4.6796875 8.5859375 C 4.3436875 8.6519375 3.9631094 8.6835938 3.5371094 8.6835938 L 2.6914062 8.6835938 L 2.6914062 11.095703 L 2.0800781 11.095703 L 2.0800781 4.9765625 C 2.2960781 4.9165625 2.5479375 4.8736094 2.8359375 4.8496094 C 3.1299375 4.8196094 3.4022969 4.8046875 3.6542969 4.8046875 z M 3.6816406 5.3359375 C 3.4536406 5.3359375 3.2577031 5.3452812 3.0957031 5.3632812 C 2.9397031 5.3752813 2.8054063 5.3864375 2.6914062 5.3984375 L 2.6914062 8.1523438 L 3.4648438 8.1523438 C 3.7948438 8.1523438 4.0914687 8.1356094 4.3554688 8.0996094 C 4.6254688 8.0576094 4.8550156 7.9848125 5.0410156 7.8828125 C 5.2330156 7.7748125 5.3784688 7.6274062 5.4804688 7.4414062 C 5.5824688 7.2554062 5.6347656 7.0184688 5.6347656 6.7304688 C 5.6347656 6.4544687 5.5768906 6.226875 5.4628906 6.046875 C 5.3548906 5.866875 5.2074844 5.7250469 5.0214844 5.6230469 C 4.8414844 5.5150469 4.6343906 5.4404375 4.4003906 5.3984375 C 4.1663906 5.3564375 3.9276406 5.3359375 3.6816406 5.3359375 z M 8.7128906 6.3359375 C 9.0188906 6.3359375 9.2763281 6.3807031 9.4863281 6.4707031 C 9.7023281 6.5547031 9.8758128 6.6740781 10.007812 6.8300781 C 10.139812 6.9800781 10.236875 7.1591406 10.296875 7.3691406 C 10.356875 7.5791406 10.386719 7.8086875 10.386719 8.0546875 L 10.386719 10.988281 C 10.326719 11.006281 10.239 11.026781 10.125 11.050781 C 10.011 11.068781 9.8785156 11.089281 9.7285156 11.113281 C 9.5785156 11.137281 9.4106094 11.155969 9.2246094 11.167969 C 9.0446094 11.185969 8.8580156 11.195313 8.6660156 11.195312 C 8.4200156 11.195312 8.1924219 11.167281 7.9824219 11.113281 C 7.7784219 11.059281 7.5993594 10.975328 7.4433594 10.861328 C 7.2933594 10.741328 7.1720313 10.592109 7.0820312 10.412109 C 6.9980313 10.226109 6.9570313 10.000328 6.9570312 9.7363281 C 6.9570312 9.4843281 7.0055625 9.2698437 7.1015625 9.0898438 C 7.1975625 8.9098438 7.3318594 8.7624375 7.5058594 8.6484375 C 7.6798594 8.5284375 7.8869531 8.4407187 8.1269531 8.3867188 C 8.3669531 8.3327188 8.6281563 8.3066406 8.9101562 8.3066406 C 8.9941562 8.3066406 9.081875 8.3122187 9.171875 8.3242188 C 9.267875 8.3302187 9.3574063 8.341375 9.4414062 8.359375 C 9.5314063 8.371375 9.6060156 8.3862969 9.6660156 8.4042969 C 9.7320156 8.4162969 9.7767813 8.4294063 9.8007812 8.4414062 L 9.8007812 8.1523438 C 9.8007812 7.9903437 9.789625 7.8355469 9.765625 7.6855469 C 9.741625 7.5295469 9.6875156 7.3914844 9.6035156 7.2714844 C 9.5255156 7.1454844 9.4117188 7.0466094 9.2617188 6.9746094 C 9.1177188 6.8966094 8.9255469 6.8574219 8.6855469 6.8574219 C 8.3435469 6.8574219 8.0879219 6.8816875 7.9199219 6.9296875 C 7.7519219 6.9776875 7.6287813 7.016875 7.5507812 7.046875 L 7.4707031 6.5332031 C 7.5727031 6.4852031 7.7275 6.4404375 7.9375 6.3984375 C 8.1535 6.3564375 8.4128906 6.3359375 8.7128906 6.3359375 z M 12.59375 8.7539062 C 12.98765 8.7539062 13.283522 8.851875 13.482422 9.046875 C 13.681322 9.237975 13.78125 9.5044563 13.78125 9.8476562 C 13.78125 9.9997563 13.753819 10.14475 13.699219 10.28125 C 13.644619 10.41385 13.570163 10.543169 13.476562 10.667969 C 13.386863 10.792769 13.283016 10.912297 13.166016 11.029297 C 13.049016 11.146297 12.929494 11.263859 12.808594 11.380859 C 12.707194 11.478359 12.609219 11.578288 12.511719 11.679688 C 12.418119 11.777188 12.331906 11.877116 12.253906 11.978516 C 12.179806 12.076016 12.119066 12.172031 12.072266 12.269531 C 12.029366 12.363131 12.007813 12.457181 12.007812 12.550781 L 12.007812 12.5625 L 13.919922 12.5625 L 13.919922 12.896484 L 11.585938 12.896484 C 11.585938 12.888684 11.583945 12.874969 11.580078 12.855469 L 11.580078 12.755859 C 11.580078 12.572559 11.613387 12.402094 11.679688 12.246094 C 11.745988 12.086194 11.830241 11.937275 11.931641 11.796875 C 12.036941 11.656475 12.152544 11.525197 12.277344 11.404297 C 12.406044 11.283397 12.529484 11.165834 12.646484 11.052734 C 12.743984 10.959134 12.834122 10.869003 12.919922 10.783203 C 13.009622 10.693503 13.087997 10.603366 13.154297 10.509766 C 13.220597 10.416166 13.2735 10.316237 13.3125 10.210938 C 13.3515 10.105638 13.371094 9.9900344 13.371094 9.8652344 C 13.371094 9.5922344 13.296638 9.39825 13.148438 9.28125 C 13.004137 9.16035 12.821909 9.0996094 12.599609 9.0996094 C 12.474809 9.0996094 12.363125 9.1152844 12.265625 9.1464844 C 12.168125 9.1776844 12.081912 9.2149125 12.007812 9.2578125 C 11.937612 9.2968125 11.876872 9.3379594 11.826172 9.3808594 C 11.775472 9.4237594 11.738244 9.4570688 11.714844 9.4804688 L 11.515625 9.2167969 C 11.539025 9.1894969 11.580172 9.1503094 11.638672 9.0996094 C 11.701072 9.0450094 11.777487 8.9921062 11.867188 8.9414062 C 11.960788 8.8907063 12.068553 8.8476 12.189453 8.8125 C 12.310353 8.7735 12.44555 8.7539063 12.59375 8.7539062 z M 8.8925781 8.8105469 C 8.7485781 8.8105469 8.5974063 8.8217031 8.4414062 8.8457031 C 8.2854062 8.8637031 8.1417656 8.9084687 8.0097656 8.9804688 C 7.8777656 9.0464688 7.7695469 9.1397656 7.6855469 9.2597656 C 7.6015469 9.3797656 7.5605469 9.5383281 7.5605469 9.7363281 C 7.5605469 9.9103281 7.586625 10.057734 7.640625 10.177734 C 7.700625 10.297734 7.7827656 10.394797 7.8847656 10.466797 C 7.9927656 10.538797 8.1177187 10.592906 8.2617188 10.628906 C 8.4117187 10.658906 8.579625 10.673828 8.765625 10.673828 C 8.993625 10.673828 9.191375 10.666297 9.359375 10.654297 C 9.533375 10.636297 9.6807813 10.615797 9.8007812 10.591797 L 9.8007812 8.953125 C 9.7347812 8.923125 9.6303281 8.8932813 9.4863281 8.8632812 C 9.3423281 8.8272812 9.1445781 8.8105469 8.8925781 8.8105469 z "
     id="path4" />
</svg>

<svg xmlns="http://www.w3.org/2000/svg" viewBox="0 0 16 16">
 <path d="m 1.6 0 c -0.886 0 -1.6 0.713 -1.6 1.6 l 0 12.801 c 0 0.886 0.713 1.6 1.6 1.6 l 12.801 0 c 0.886 0 1.6 -0.713 1.6 -1.6 l 0 -12.801 c 0 -0.886 -0.713 -1.6 -1.6 -1.6 l -12.801 0 z m 2.055 4.805 c 0.882 0 1.539 0.168 1.971 0.504 c 0.432 0.336 0.648 0.814 0.648 1.432 c 0 0.354 -0.063 0.656 -0.189 0.908 c -0.126 0.246 -0.305 0.448 -0.539 0.604 c -0.234 0.15 -0.523 0.262 -0.865 0.334 c -0.336 0.066 -0.717 0.098 -1.143 0.098 l -0.846 0 l 0 2.412 l -0.611 0 l 0 -6.119 c 0.216 -0.06 0.468 -0.103 0.756 -0.127 c 0.294 -0.03 0.566 -0.045 0.818 -0.045 z m 0.027 0.531 c -0.228 0 -0.424 0.009 -0.586 0.027 c -0.156 0.012 -0.29 0.023 -0.404 0.035 l 0 2.754 l 0.773 0 c 0.33 0 0.627 -0.017 0.891 -0.053 c 0.27 -0.042 0.5 -0.115 0.686 -0.217 c 0.192 -0.108 0.337 -0.255 0.439 -0.441 c 0.102 -0.186 0.154 -0.423 0.154 -0.711 c 0 -0.276 -0.058 -0.504 -0.172 -0.684 c -0.108 -0.18 -0.255 -0.322 -0.441 -0.424 c -0.18 -0.108 -0.387 -0.183 -0.621 -0.225 c -0.234 -0.042 -0.473 -0.063 -0.719 -0.063 z m 5.03 1 c 0.306 0 0.563 0.045 0.773 0.135 c 0.216 0.084 0.389 0.203 0.521 0.359 c 0.132 0.15 0.229 0.329 0.289 0.539 c 0.06 0.21 0.09 0.44 0.09 0.686 l 0 2.934 c -0.06 0.018 -0.148 0.038 -0.262 0.063 c -0.114 0.018 -0.246 0.038 -0.396 0.063 c -0.15 0.024 -0.318 0.043 -0.504 0.055 c -0.18 0.018 -0.367 0.027 -0.559 0.027 c -0.246 0 -0.474 -0.028 -0.684 -0.082 c -0.204 -0.054 -0.383 -0.138 -0.539 -0.252 c -0.15 -0.12 -0.271 -0.269 -0.361 -0.449 c -0.084 -0.186 -0.125 -0.412 -0.125 -0.676 c 0 -0.252 0.049 -0.466 0.145 -0.646 c 0.096 -0.18 0.23 -0.327 0.404 -0.441 c 0.174 -0.12 0.381 -0.208 0.621 -0.262 c 0.24 -0.054 0.501 -0.08 0.783 -0.08 c 0.084 0 0.172 0.006 0.262 0.018 c 0.096 0.006 0.186 0.017 0.27 0.035 c 0.09 0.012 0.165 0.027 0.225 0.045 c 0.066 0.012 0.111 0.025 0.135 0.037 l 0 -0.289 c 0 -0.162 -0.011 -0.317 -0.035 -0.467 c -0.024 -0.156 -0.078 -0.294 -0.162 -0.414 c -0.078 -0.126 -0.192 -0.225 -0.342 -0.297 c -0.144 -0.078 -0.336 -0.117 -0.576 -0.117 c -0.342 0 -0.598 0.024 -0.766 0.072 c -0.168 0.048 -0.291 0.087 -0.369 0.117 l -0.08 -0.514 c 0.102 -0.048 0.257 -0.093 0.467 -0.135 c 0.216 -0.042 0.475 -0.063 0.775 -0.063 z m 3.881 2.418 c 0.394 0 0.69 0.098 0.889 0.293 c 0.199 0.191 0.299 0.458 0.299 0.801 c 0 0.152 -0.027 0.297 -0.082 0.434 c -0.055 0.133 -0.129 0.262 -0.223 0.387 c -0.09 0.125 -0.194 0.244 -0.311 0.361 c -0.117 0.117 -0.237 0.235 -0.357 0.352 c -0.101 0.098 -0.199 0.197 -0.297 0.299 c -0.094 0.098 -0.18 0.197 -0.258 0.299 c -0.074 0.097 -0.135 0.194 -0.182 0.291 c -0.043 0.094 -0.064 0.188 -0.064 0.281 l 0 0.012 l 1.912 0 l 0 0.334 l -2.334 0 c 0 -0.008 -0.002 -0.022 -0.006 -0.041 l 0 -0.1 c 0 -0.183 0.033 -0.354 0.1 -0.51 c 0.066 -0.16 0.151 -0.309 0.252 -0.449 c 0.105 -0.14 0.221 -0.272 0.346 -0.393 c 0.129 -0.121 0.252 -0.238 0.369 -0.352 c 0.098 -0.094 0.188 -0.184 0.273 -0.27 c 0.09 -0.09 0.168 -0.18 0.234 -0.273 c 0.066 -0.094 0.119 -0.194 0.158 -0.299 c 0.039 -0.105 0.059 -0.221 0.059 -0.346 c 0 -0.273 -0.074 -0.467 -0.223 -0.584 c -0.144 -0.121 -0.327 -0.182 -0.549 -0.182 c -0.125 0 -0.236 0.016 -0.334 0.047 c -0.098 0.031 -0.184 0.068 -0.258 0.111 c -0.07 0.039 -0.131 0.08 -0.182 0.123 c -0.051 0.043 -0.088 0.076 -0.111 0.1 l -0.199 -0.264 c 0.023 -0.027 0.065 -0.066 0.123 -0.117 c 0.062 -0.055 0.139 -0.108 0.229 -0.158 c 0.094 -0.051 0.201 -0.094 0.322 -0.129 c 0.121 -0.039 0.256 -0.059 0.404 -0.059 z m -3.701 0.057 c -0.144 0 -0.295 0.011 -0.451 0.035 c -0.156 0.018 -0.3 0.063 -0.432 0.135 c -0.132 0.066 -0.24 0.159 -0.324 0.279 c -0.084 0.12 -0.125 0.279 -0.125 0.477 c 0 0.174 0.026 0.321 0.08 0.441 c 0.06 0.12 0.142 0.217 0.244 0.289 c 0.108 0.072 0.233 0.126 0.377 0.162 c 0.15 0.03 0.318 0.045 0.504 0.045 c 0.228 0 0.426 -0.008 0.594 -0.02 c 0.174 -0.018 0.321 -0.038 0.441 -0.063 l 0 -1.639 c -0.066 -0.03 -0.17 -0.06 -0.314 -0.09 c -0.144 -0.036 -0.342 -0.053 -0.594 -0.053 z" style="fill:#353535;fill-opacity:1"/>
</svg>
